Newaita-dark/apps/32/com.github.kmal-kenneth.monilet.svg

<svg height="32" viewBox="0 0 32 32" width="32" xmlns="http://www.w3.org/2000/svg" xmlns:xlink="http://www.w3.org/1999/xlink"><linearGradient id="a" gradientUnits="userSpaceOnUse" x1="15.87652" x2="15.87652" y1="28.033936" y2="29.35698000003"><stop offset="0" stop-opacity=".27451"/><stop offset="1" stop-opacity="0"/></linearGradient><linearGradient id="b"><stop offset="0" stop-opacity=".313726"/><stop offset=".222222" stop-opacity=".27451"/><stop offset="1" stop-opacity="0"/></linearGradient><radialGradient id="c" cx="450.908936" cy="189.579361" gradientTransform="matrix(.00000017 -.0781325 -.140638 -.0000001 52.130648 63.595333)" gradientUnits="userSpaceOnUse" r="21.166656" xlink:href="#b"/><radialGradient id="d" cx="450.908936" cy="189.579361" gradientTransform="matrix(-.00000017 .0781325 .140638 .0000001 -20.377613 -7.527479)" gradientUnits="userSpaceOnUse" r="21.166656" xlink:href="#b"/><radialGradient id="e" cx="450.908936" cy="189.579361" gradientTransform="matrix(-.00000017 -.0781325 .140638 -.0000001 -20.377613 63.595333)" gradientUnits="userSpaceOnUse" r="21.166656" xlink:href="#b"/><radialGradient id="f" cx="450.908936" cy="189.579361" gradientTransform="matrix(.00000017 .0781325 -.140638 .0000001 52.130646 -7.527479)" gradientUnits="userSpaceOnUse" r="21.166656" xlink:href="#b"/><linearGradient id="g" gradientUnits="userSpaceOnUse" x1="10.58434899997" x2="10.58434899997" y1="28.033934" y2="2.89610500006"><stop offset="0" stop-color="#424242"/><stop offset="1" stop-color="#616161"/></linearGradient><path d="m5.953125 27.9375h19.847656v1.46875h-19.847656zm0 0" fill="url(#a)"/><path d="m25.800781 28.035156h2.644531v-1.324218h-2.644531zm0 0" fill="url(#c)"/><path d="m5.953125 28.035156h-2.644531v1.320313h2.644531zm0 0" fill="url(#d)"/><path d="m5.953125 28.035156h-2.644531v-1.324218h2.644531zm0 0" fill="url(#e)"/><path d="m25.800781 28.035156h2.644531v1.320313h-2.644531zm0 0" fill="url(#f)"/><path d="m4.628906 2.894531h22.492188c.730468 0 1.324218.59375 1.324218 1.324219v22.492188c0 .730468-.59375 1.324218-1.324218 1.324218h-22.492188c-.730468 0-1.320312-.59375-1.320312-1.324218v-22.492188c0-.730469.589844-1.324219 1.320312-1.324219zm0 0" fill="url(#g)"/><path d="m4.628906 2.894531c-.730468 0-1.320312.589844-1.320312 1.324219v.164062c0-.730468.589844-1.324218 1.320312-1.320312h22.492188c.734375-.003906 1.324218.589844 1.324218 1.320312v-.164062c0-.734375-.589843-1.324219-1.324218-1.324219zm0 0" fill="#e6e6e6" fill-opacity=".392157"/><path d="m4.628906 28.035156c-.730468 0-1.320312-.589844-1.320312-1.324218v-.164063c0 .730469.589844 1.320313 1.320312 1.320313h22.492188c.734375 0 1.324218-.589844 1.324218-1.320313v.164063c0 .734374-.589843 1.324218-1.324218 1.324218zm0 0" fill-opacity=".196078"/><path d="m74.055428-168.691922h359.840637c11.686384 0 21.185477 9.499093 21.185477 21.185477v359.840637c0 11.686384-9.499093 21.185477-21.185477 21.185477h-359.840637c-11.686384 0-21.122983-9.499093-21.122983-21.185477v-359.840637c0-11.686384 9.436599-21.185477 21.122983-21.185477zm0 0" fill="none" stroke="#212121" stroke-linecap="round" stroke-width="3" transform="matrix(.062506 0 0 .062506 0 13.438783)"/><path d="m15.875 6.875c-4.734375 0-8.585938 3.855469-8.585938 8.589844v.164062c.082032-4.664062 3.902344-8.433594 8.585938-8.433594s8.503906 3.769532 8.589844 8.433594c0-.054687 0-.109375 0-.164062 0-4.734375-3.851563-8.589844-8.589844-8.589844zm-5.960938 8.746094v.164062c0 2.34375 1.320313 4.332032 3.25 5.316406.398438.195313.667969.578126.722657 1.015626.066406-.554688-.222657-1.089844-.722657-1.335938-1.886718-.960938-3.191406-2.886719-3.25-5.160156zm11.925782 0c-.058594 2.273437-1.363282 4.199218-3.25 5.160156-.5.246094-.789063.78125-.722656 1.335938.054687-.4375.324218-.820313.722656-1.015626 1.929687-.984374 3.25-2.972656 3.25-5.316406 0-.054687 0-.109375 0-.164062zm0 0" fill-opacity=".235294"/><path d="m15.875 6.875c-4.734375 0-8.585938 3.855469-8.585938 8.589844 0 3.335937 1.898438 6.238281 4.683594 7.65625.417969.21875.925782.199218 1.324219-.058594.394531-.257812.625-.707031.597656-1.179688-.027343-.472656-.304687-.894531-.730469-1.101562-1.929687-.984375-3.25-2.972656-3.25-5.316406 0-3.328125 2.636719-5.964844 5.960938-5.964844 3.328125 0 5.964844 2.636719 5.964844 5.964844 0 2.34375-1.320313 4.332031-3.25 5.316406-.425782.207031-.703125.628906-.730469 1.101562-.027344.472657.199219.921876.597656 1.179688.398438.257812.902344.277344 1.324219.058594 2.785156-1.417969 4.683594-4.320313 4.683594-7.65625 0-4.734375-3.851563-8.589844-8.589844-8.589844zm0 0" fill-opacity=".235294"/><path d="m15.875 6.875c-4.734375 0-8.585938 3.855469-8.585938 8.589844 0 3.335937 1.898438 6.238281 4.683594 7.65625.417969.21875.925782.199218 1.324219-.058594.394531-.257812.625-.707031.597656-1.179688-.027343-.472656-.304687-.894531-.730469-1.101562-1.929687-.984375-3.25-2.972656-3.25-5.316406 0-3.328125 2.636719-5.964844 5.960938-5.964844.476562.007812.914062-.242188 1.15625-.648438.238281-.410156.238281-.917968 0-1.324218-.242188-.410156-.679688-.660156-1.15625-.652344zm0 0" fill="#26a69a"/><path d="m15.875 9.546875c-3.238281 0-5.824219 2.5-5.957031 5.707031 0-.03125-.003907-.0625-.003907-.09375v.171875c0 .082031 0 .167969.003907.25.132812-3.203125 2.71875-5.707031 5.957031-5.707031 3.242188 0 5.828125 2.503906 5.960938 5.707031.003906-.082031.003906-.167969.003906-.25 0-.058593 0-.117187 0-.171875-.003906.03125-.003906.0625-.003906.09375-.132813-3.207031-2.71875-5.707031-5.960938-5.707031zm-8.585938 6.132813v.160156c0 3.335937 1.898438 6.238281 4.683594 7.65625.433594.226562.957032.191406 1.359375-.085938.402344-.28125.613281-.757812.550781-1.242187-.054687.425781-.3125.796875-.691406.996093-.382812.199219-.835937.199219-1.21875 0-2.738281-1.394531-4.621094-4.222656-4.683594-7.484374zm17.175782 0c-.0625 3.261718-1.945313 6.089843-4.683594 7.484374-.382812.199219-.835938.199219-1.21875.003907-.378906-.199219-.640625-.574219-.695312-1-.058594.484375.152343.964843.554687 1.242187.402344.28125.925781.3125 1.359375.085938 2.785156-1.417969 4.683594-4.320313 4.683594-7.65625 0-.054688 0-.105469 0-.160156zm0 0" fill="#fff" fill-opacity=".392157"/><path d="m253.975747-105.010503c-75.742767 0-137.361883 61.681609-137.361883 137.424376 0 53.369904 30.3721 99.802969 74.930344 122.488303 6.686862 3.499666 14.811086 3.187196 21.185477-.93741 6.311898-4.124606 9.999045-11.31142 9.561587-18.873198s-4.874534-14.311133-11.686384-17.623317c-30.872052-15.748496-51.995034-47.557959-51.995034-85.054378 0-53.244915 42.183471-95.428387 95.365893-95.428387 53.244915 0 95.428387 42.183472 95.428387 95.428387 0 37.496419-21.122983 69.305882-51.995035 85.054378-6.81185 3.312184-11.248926 10.061539-11.686384 17.623317s3.187195 14.748592 9.561587 18.873198c6.374391 4.124606 14.436121 4.437076 21.185477.93741 44.558245-22.685334 74.930344-69.118399 74.930344-122.488303 0-75.742767-61.619116-137.424376-137.424376-137.424376zm0 0" fill="none" stroke="#212121" stroke-linecap="round" stroke-linejoin="round" stroke-width="3" transform="matrix(.062506 0 0 .062506 0 13.438783)"/><path d="m15.875 6.949219c-4.734375 0-8.585938 3.851562-8.585938 8.589843v.160157c.082032-4.664063 3.902344-8.429688 8.585938-8.429688.671875-.011719 1.238281.484375 1.324219 1.148438.042969-.375-.074219-.753907-.328125-1.035157s-.617188-.441406-.996094-.433593zm-5.960938 8.746093v.164063c0 2.339844 1.320313 4.332031 3.25 5.3125.398438.199219.667969.578125.722657 1.019531.066406-.554687-.222657-1.089844-.722657-1.339844-1.886718-.960937-3.191406-2.882812-3.25-5.15625zm0 0" fill="#fff" fill-opacity=".392157"/><path d="m17.199219 8.023438c-.082031.664062-.652344 1.164062-1.324219 1.152343-3.324219 0-5.960938 2.636719-5.960938 5.964844v.160156c.085938-3.25 2.691407-5.800781 5.960938-5.800781.382812.007812.746094-.152344 1-.4375.253906-.28125.371094-.664062.324219-1.039062zm-9.910157 7.28125v.160156c0 3.335937 1.898438 6.238281 4.683594 7.65625.433594.226562.957032.195312 1.359375-.082032.402344-.28125.613281-.757812.554688-1.242187-.054688.425781-.3125.800781-.695313 1-.382812.199219-.835937.199219-1.21875 0-2.738281-1.394531-4.621094-4.226563-4.683594-7.492187zm0 0" fill-opacity=".235294"/><path d="m253.975747-105.010503c-75.742767 0-137.361883 61.681609-137.361883 137.424376 0 53.369904 30.3721 99.802969 74.930344 122.488303 6.686862 3.499666 14.811086 3.187196 21.185477-.93741 6.311898-4.124606 9.999045-11.31142 9.561587-18.873198s-4.874534-14.311133-11.686384-17.623317c-30.872052-15.748496-51.995034-47.557959-51.995034-85.054378 0-53.244915 42.183471-95.428387 95.365893-95.428387 7.624271.124988 14.623603-3.87463 18.498233-10.374009 3.812136-6.561874 3.812136-14.686098 0-21.185477-3.87463-6.561873-10.873962-10.561492-18.498233-10.436503zm0 0" fill="none" stroke="#212121" stroke-linecap="round" stroke-linejoin="round" stroke-width="3" transform="matrix(.062506 0 0 .062506 0 13.438783)"/></svg>

<?xml version="1.0" encoding="UTF-8"?>
<svg xmlns="http://www.w3.org/2000/svg" xmlns:xlink="http://www.w3.org/1999/xlink" width="32px" height="32px" viewBox="0 0 32 32" version="1.1">
<defs>
<linearGradient id="linear0" gradientUnits="userSpaceOnUse" x1="254" y1="233.5" x2="254" y2="254.666672" gradientTransform="matrix(0.062506,0,0,0.062506,-0.00000381506,13.438785)">
<stop offset="0" style="stop-color:rgb(0%,0%,0%);stop-opacity:0.27451;"/>
<stop offset="1" style="stop-color:rgb(0%,0%,0%);stop-opacity:0;"/>
</linearGradient>
<radialGradient id="radial0" gradientUnits="userSpaceOnUse" cx="450.908936" cy="189.579361" fx="450.908936" fy="189.579361" r="21.166656" gradientTransform="matrix(0.00000017417,-0.0781325,-0.140638,-0.000000101539,52.130648,63.595333)">
<stop offset="0" style="stop-color:rgb(0%,0%,0%);stop-opacity:0.313726;"/>
<stop offset="0.222222" style="stop-color:rgb(0%,0%,0%);stop-opacity:0.27451;"/>
<stop offset="1" style="stop-color:rgb(0%,0%,0%);stop-opacity:0;"/>
</radialGradient>
<radialGradient id="radial1" gradientUnits="userSpaceOnUse" cx="450.908936" cy="189.579361" fx="450.908936" fy="189.579361" r="21.166656" gradientTransform="matrix(-0.00000017417,0.0781325,0.140638,0.000000101539,-20.377613,-7.527479)">
<stop offset="0" style="stop-color:rgb(0%,0%,0%);stop-opacity:0.313726;"/>
<stop offset="0.222222" style="stop-color:rgb(0%,0%,0%);stop-opacity:0.27451;"/>
<stop offset="1" style="stop-color:rgb(0%,0%,0%);stop-opacity:0;"/>
</radialGradient>
<radialGradient id="radial2" gradientUnits="userSpaceOnUse" cx="450.908936" cy="189.579361" fx="450.908936" fy="189.579361" r="21.166656" gradientTransform="matrix(-0.00000017417,-0.0781325,0.140638,-0.000000101539,-20.377613,63.595333)">
<stop offset="0" style="stop-color:rgb(0%,0%,0%);stop-opacity:0.313726;"/>
<stop offset="0.222222" style="stop-color:rgb(0%,0%,0%);stop-opacity:0.27451;"/>
<stop offset="1" style="stop-color:rgb(0%,0%,0%);stop-opacity:0;"/>
</radialGradient>
<radialGradient id="radial3" gradientUnits="userSpaceOnUse" cx="450.908936" cy="189.579361" fx="450.908936" fy="189.579361" r="21.166656" gradientTransform="matrix(0.00000017417,0.0781325,-0.140638,0.000000101539,52.130646,-7.527479)">
<stop offset="0" style="stop-color:rgb(0%,0%,0%);stop-opacity:0.313726;"/>
<stop offset="0.222222" style="stop-color:rgb(0%,0%,0%);stop-opacity:0.27451;"/>
<stop offset="1" style="stop-color:rgb(0%,0%,0%);stop-opacity:0;"/>
</radialGradient>
<linearGradient id="linear1" gradientUnits="userSpaceOnUse" x1="169.333328" y1="233.5" x2="169.333328" y2="-168.666656" gradientTransform="matrix(0.062506,0,0,0.062506,0,13.438783)">
<stop offset="0" style="stop-color:rgb(25.882354%,25.882354%,25.882354%);stop-opacity:1;"/>
<stop offset="1" style="stop-color:rgb(38.039216%,38.039216%,38.039216%);stop-opacity:1;"/>
</linearGradient>
</defs>
<g id="surface1">
<path style=" stroke:none;fill-rule:nonzero;fill:url(#linear0);" d="M 5.953125 27.9375 L 25.800781 27.9375 L 25.800781 29.40625 L 5.953125 29.40625 Z M 5.953125 27.9375 "/>
<path style=" stroke:none;fill-rule:nonzero;fill:url(#radial0);" d="M 25.800781 28.035156 L 28.445312 28.035156 L 28.445312 26.710938 L 25.800781 26.710938 Z M 25.800781 28.035156 "/>
<path style=" stroke:none;fill-rule:nonzero;fill:url(#radial1);" d="M 5.953125 28.035156 L 3.308594 28.035156 L 3.308594 29.355469 L 5.953125 29.355469 Z M 5.953125 28.035156 "/>
<path style=" stroke:none;fill-rule:nonzero;fill:url(#radial2);" d="M 5.953125 28.035156 L 3.308594 28.035156 L 3.308594 26.710938 L 5.953125 26.710938 Z M 5.953125 28.035156 "/>
<path style=" stroke:none;fill-rule:nonzero;fill:url(#radial3);" d="M 25.800781 28.035156 L 28.445312 28.035156 L 28.445312 29.355469 L 25.800781 29.355469 Z M 25.800781 28.035156 "/>
<path style=" stroke:none;fill-rule:nonzero;fill:url(#linear1);" d="M 4.628906 2.894531 L 27.121094 2.894531 C 27.851562 2.894531 28.445312 3.488281 28.445312 4.21875 L 28.445312 26.710938 C 28.445312 27.441406 27.851562 28.035156 27.121094 28.035156 L 4.628906 28.035156 C 3.898438 28.035156 3.308594 27.441406 3.308594 26.710938 L 3.308594 4.21875 C 3.308594 3.488281 3.898438 2.894531 4.628906 2.894531 Z M 4.628906 2.894531 "/>
<path style=" stroke:none;fill-rule:nonzero;fill:rgb(90.196079%,90.196079%,90.196079%);fill-opacity:0.392157;" d="M 4.628906 2.894531 C 3.898438 2.894531 3.308594 3.484375 3.308594 4.21875 L 3.308594 4.382812 C 3.308594 3.652344 3.898438 3.058594 4.628906 3.0625 L 27.121094 3.0625 C 27.855469 3.058594 28.445312 3.652344 28.445312 4.382812 L 28.445312 4.21875 C 28.445312 3.484375 27.855469 2.894531 27.121094 2.894531 Z M 4.628906 2.894531 "/>
<path style=" stroke:none;fill-rule:nonzero;fill:rgb(0%,0%,0%);fill-opacity:0.196078;" d="M 4.628906 28.035156 C 3.898438 28.035156 3.308594 27.445312 3.308594 26.710938 L 3.308594 26.546875 C 3.308594 27.277344 3.898438 27.867188 4.628906 27.867188 L 27.121094 27.867188 C 27.855469 27.867188 28.445312 27.277344 28.445312 26.546875 L 28.445312 26.710938 C 28.445312 27.445312 27.855469 28.035156 27.121094 28.035156 Z M 4.628906 28.035156 "/>
<path style="fill:none;stroke-width:3;stroke-linecap:round;stroke-linejoin:miter;stroke:rgb(12.941177%,12.941177%,12.941177%);stroke-opacity:1;stroke-miterlimit:4;" d="M 74.055428 -168.691922 L 433.896065 -168.691922 C 445.582449 -168.691922 455.081542 -159.192829 455.081542 -147.506445 L 455.081542 212.334192 C 455.081542 224.020576 445.582449 233.519669 433.896065 233.519669 L 74.055428 233.519669 C 62.369044 233.519669 52.932445 224.020576 52.932445 212.334192 L 52.932445 -147.506445 C 52.932445 -159.192829 62.369044 -168.691922 74.055428 -168.691922 Z M 74.055428 -168.691922 " transform="matrix(0.062506,0,0,0.062506,0,13.438783)"/>
<path style=" stroke:none;fill-rule:nonzero;fill:rgb(0%,0%,0%);fill-opacity:0.235294;" d="M 15.875 6.875 C 11.140625 6.875 7.289062 10.730469 7.289062 15.464844 C 7.289062 15.519531 7.289062 15.574219 7.289062 15.628906 C 7.371094 10.964844 11.191406 7.195312 15.875 7.195312 C 20.558594 7.195312 24.378906 10.964844 24.464844 15.628906 C 24.464844 15.574219 24.464844 15.519531 24.464844 15.464844 C 24.464844 10.730469 20.613281 6.875 15.875 6.875 Z M 9.914062 15.621094 C 9.914062 15.675781 9.914062 15.730469 9.914062 15.785156 C 9.914062 18.128906 11.234375 20.117188 13.164062 21.101562 C 13.5625 21.296875 13.832031 21.679688 13.886719 22.117188 C 13.953125 21.5625 13.664062 21.027344 13.164062 20.78125 C 11.277344 19.820312 9.972656 17.894531 9.914062 15.621094 Z M 21.839844 15.621094 C 21.78125 17.894531 20.476562 19.820312 18.589844 20.78125 C 18.089844 21.027344 17.800781 21.5625 17.867188 22.117188 C 17.921875 21.679688 18.191406 21.296875 18.589844 21.101562 C 20.519531 20.117188 21.839844 18.128906 21.839844 15.785156 C 21.839844 15.730469 21.839844 15.675781 21.839844 15.621094 Z M 21.839844 15.621094 "/>
<path style=" stroke:none;fill-rule:nonzero;fill:rgb(0%,0%,0%);fill-opacity:0.235294;" d="M 15.875 6.875 C 11.140625 6.875 7.289062 10.730469 7.289062 15.464844 C 7.289062 18.800781 9.1875 21.703125 11.972656 23.121094 C 12.390625 23.339844 12.898438 23.320312 13.296875 23.0625 C 13.691406 22.804688 13.921875 22.355469 13.894531 21.882812 C 13.867188 21.410156 13.589844 20.988281 13.164062 20.78125 C 11.234375 19.796875 9.914062 17.808594 9.914062 15.464844 C 9.914062 12.136719 12.550781 9.5 15.875 9.5 C 19.203125 9.5 21.839844 12.136719 21.839844 15.464844 C 21.839844 17.808594 20.519531 19.796875 18.589844 20.78125 C 18.164062 20.988281 17.886719 21.410156 17.859375 21.882812 C 17.832031 22.355469 18.058594 22.804688 18.457031 23.0625 C 18.855469 23.320312 19.359375 23.339844 19.78125 23.121094 C 22.566406 21.703125 24.464844 18.800781 24.464844 15.464844 C 24.464844 10.730469 20.613281 6.875 15.875 6.875 Z M 15.875 6.875 "/>
<path style=" stroke:none;fill-rule:nonzero;fill:rgb(14.901961%,65.098041%,60.392159%);fill-opacity:1;" d="M 15.875 6.875 C 11.140625 6.875 7.289062 10.730469 7.289062 15.464844 C 7.289062 18.800781 9.1875 21.703125 11.972656 23.121094 C 12.390625 23.339844 12.898438 23.320312 13.296875 23.0625 C 13.691406 22.804688 13.921875 22.355469 13.894531 21.882812 C 13.867188 21.410156 13.589844 20.988281 13.164062 20.78125 C 11.234375 19.796875 9.914062 17.808594 9.914062 15.464844 C 9.914062 12.136719 12.550781 9.5 15.875 9.5 C 16.351562 9.507812 16.789062 9.257812 17.03125 8.851562 C 17.269531 8.441406 17.269531 7.933594 17.03125 7.527344 C 16.789062 7.117188 16.351562 6.867188 15.875 6.875 Z M 15.875 6.875 "/>
<path style=" stroke:none;fill-rule:nonzero;fill:rgb(100%,100%,100%);fill-opacity:0.392157;" d="M 15.875 9.546875 C 12.636719 9.546875 10.050781 12.046875 9.917969 15.253906 C 9.917969 15.222656 9.914062 15.191406 9.914062 15.160156 C 9.914062 15.214844 9.914062 15.273438 9.914062 15.332031 C 9.914062 15.414062 9.914062 15.5 9.917969 15.582031 C 10.050781 12.378906 12.636719 9.875 15.875 9.875 C 19.117188 9.875 21.703125 12.378906 21.835938 15.582031 C 21.839844 15.5 21.839844 15.414062 21.839844 15.332031 C 21.839844 15.273438 21.839844 15.214844 21.839844 15.160156 C 21.835938 15.191406 21.835938 15.222656 21.835938 15.253906 C 21.703125 12.046875 19.117188 9.546875 15.875 9.546875 Z M 7.289062 15.679688 C 7.289062 15.734375 7.289062 15.785156 7.289062 15.839844 C 7.289062 19.175781 9.1875 22.078125 11.972656 23.496094 C 12.40625 23.722656 12.929688 23.6875 13.332031 23.410156 C 13.734375 23.128906 13.945312 22.652344 13.882812 22.167969 C 13.828125 22.59375 13.570312 22.964844 13.191406 23.164062 C 12.808594 23.363281 12.355469 23.363281 11.972656 23.164062 C 9.234375 21.769531 7.351562 18.941406 7.289062 15.679688 Z M 24.464844 15.679688 C 24.402344 18.941406 22.519531 21.769531 19.78125 23.164062 C 19.398438 23.363281 18.945312 23.363281 18.5625 23.167969 C 18.183594 22.96875 17.921875 22.59375 17.867188 22.167969 C 17.808594 22.652344 18.019531 23.132812 18.421875 23.410156 C 18.824219 23.691406 19.347656 23.722656 19.78125 23.496094 C 22.566406 22.078125 24.464844 19.175781 24.464844 15.839844 C 24.464844 15.785156 24.464844 15.734375 24.464844 15.679688 Z M 24.464844 15.679688 "/>
<path style="fill:none;stroke-width:3;stroke-linecap:round;stroke-linejoin:round;stroke:rgb(12.941177%,12.941177%,12.941177%);stroke-opacity:1;stroke-miterlimit:4;" d="M 253.975747 -105.010503 C 178.23298 -105.010503 116.613864 -43.328894 116.613864 32.413873 C 116.613864 85.783777 146.985964 132.216842 191.544208 154.902176 C 198.23107 158.401842 206.355294 158.089372 212.729685 153.964766 C 219.041583 149.84016 222.72873 142.653346 222.291272 135.091568 C 221.853814 127.52979 217.416738 120.780435 210.604888 117.468251 C 179.732836 101.719755 158.609854 69.910292 158.609854 32.413873 C 158.609854 -20.831042 200.793325 -63.014514 253.975747 -63.014514 C 307.220662 -63.014514 349.404134 -20.831042 349.404134 32.413873 C 349.404134 69.910292 328.281151 101.719755 297.409099 117.468251 C 290.597249 120.780435 286.160173 127.52979 285.722715 135.091568 C 285.285257 142.653346 288.90991 149.84016 295.284302 153.964766 C 301.658693 158.089372 309.720423 158.401842 316.469779 154.902176 C 361.028024 132.216842 391.400123 85.783777 391.400123 32.413873 C 391.400123 -43.328894 329.781007 -105.010503 253.975747 -105.010503 Z M 253.975747 -105.010503 " transform="matrix(0.062506,0,0,0.062506,0,13.438783)"/>
<path style=" stroke:none;fill-rule:nonzero;fill:rgb(100%,100%,100%);fill-opacity:0.392157;" d="M 15.875 6.949219 C 11.140625 6.949219 7.289062 10.800781 7.289062 15.539062 C 7.289062 15.59375 7.289062 15.644531 7.289062 15.699219 C 7.371094 11.035156 11.191406 7.269531 15.875 7.269531 C 16.546875 7.257812 17.113281 7.753906 17.199219 8.417969 C 17.242188 8.042969 17.125 7.664062 16.871094 7.382812 C 16.617188 7.101562 16.253906 6.941406 15.875 6.949219 Z M 9.914062 15.695312 C 9.914062 15.75 9.914062 15.804688 9.914062 15.859375 C 9.914062 18.199219 11.234375 20.191406 13.164062 21.171875 C 13.5625 21.371094 13.832031 21.75 13.886719 22.191406 C 13.953125 21.636719 13.664062 21.101562 13.164062 20.851562 C 11.277344 19.890625 9.972656 17.96875 9.914062 15.695312 Z M 9.914062 15.695312 "/>
<path style=" stroke:none;fill-rule:nonzero;fill:rgb(0%,0%,0%);fill-opacity:0.235294;" d="M 17.199219 8.023438 C 17.117188 8.6875 16.546875 9.1875 15.875 9.175781 C 12.550781 9.175781 9.914062 11.8125 9.914062 15.140625 C 9.914062 15.195312 9.914062 15.246094 9.914062 15.300781 C 10 12.050781 12.605469 9.5 15.875 9.5 C 16.257812 9.507812 16.621094 9.347656 16.875 9.0625 C 17.128906 8.78125 17.246094 8.398438 17.199219 8.023438 Z M 7.289062 15.304688 C 7.289062 15.359375 7.289062 15.410156 7.289062 15.464844 C 7.289062 18.800781 9.1875 21.703125 11.972656 23.121094 C 12.40625 23.347656 12.929688 23.316406 13.332031 23.039062 C 13.734375 22.757812 13.945312 22.28125 13.886719 21.796875 C 13.832031 22.222656 13.574219 22.597656 13.191406 22.796875 C 12.808594 22.996094 12.355469 22.996094 11.972656 22.796875 C 9.234375 21.402344 7.351562 18.570312 7.289062 15.304688 Z M 7.289062 15.304688 "/>
<path style="fill:none;stroke-width:3;stroke-linecap:round;stroke-linejoin:round;stroke:rgb(12.941177%,12.941177%,12.941177%);stroke-opacity:1;stroke-miterlimit:4;" d="M 253.975747 -105.010503 C 178.23298 -105.010503 116.613864 -43.328894 116.613864 32.413873 C 116.613864 85.783777 146.985964 132.216842 191.544208 154.902176 C 198.23107 158.401842 206.355294 158.089372 212.729685 153.964766 C 219.041583 149.84016 222.72873 142.653346 222.291272 135.091568 C 221.853814 127.52979 217.416738 120.780435 210.604888 117.468251 C 179.732836 101.719755 158.609854 69.910292 158.609854 32.413873 C 158.609854 -20.831042 200.793325 -63.014514 253.975747 -63.014514 C 261.600018 -62.889526 268.59935 -66.889144 272.47398 -73.388523 C 276.286116 -79.950397 276.286116 -88.074621 272.47398 -94.574 C 268.59935 -101.135873 261.600018 -105.135492 253.975747 -105.010503 Z M 253.975747 -105.010503 " transform="matrix(0.062506,0,0,0.062506,0,13.438783)"/>
</g>
</svg>
